X:121
T:The land of fair Virginia O
T:not unlike the other but the common one is minor this major
Z:Jack Campin - http://www.campin.me.uk
S:Blaikie MS (NLS MS.1578) p36, Blaikie #115
M:C
L:1/8
V:1 midi program 1 74
V:2 midi program 1 46 bass middle = d transpose -24
Q:1/4=86
K:D
[V:1] A2|DEFG A2A>A|dd````fd  B2  F>G |A2A2 Afe>f|d4   z2
[V:2] z2|D2d2 D2d2 |f2    d2  g2  z2  |d2f2 a2A2 |d2A2 D2
%
[V:1] d2|dFFF F2zA |B=c (3BAF E2(3AB^c|d2cB AdF>E|D4   z2|]
[V:2] z2|D2d2 d2d2 |d2    d2  A2  a2  |f2g2 a2A2 |d2A2 D2|]
W:Transcription (c) Jack Campin 2009, no mirroring or republication without permission

